icons/tokens/0xD71eCFF9342A5Ced620049e616c5035F1dB98620/logo.svg

<svg width="32" height="32" viewBox="0 0 32 32" fill="none" xmlns="http://www.w3.org/2000/svg">
<circle cx="16" cy="16" r="16" fill="#0E052F"/>
<circle cx="16" cy="16" r="16" fill="url(#paint0_linear)" fill-opacity="0.75"/>
<circle cx="16" cy="16" r="13.8667" fill="white"/>
<circle cx="15.9667" cy="15.9667" r="12.6333" fill="#0E052F"/>
<path d="M16.8133 22.6C16.0819 22.6 15.4055 22.4966 14.7838 22.2899C14.1622 22.071 13.6076 21.7609 13.1201 21.3596C12.6447 20.9583 12.2425 20.478 11.9134 19.9186C11.5965 19.3471 11.371 18.7147 11.2369 18.0216H9.5V16.69H11.0906C11.0784 16.6049 11.0724 16.5137 11.0724 16.4164V15.7232C11.0845 15.5895 11.0906 15.48 11.0906 15.3949H9.5V14.0633H11.2186C11.3527 13.3459 11.5843 12.7014 11.9134 12.1298C12.2547 11.5583 12.6691 11.0779 13.1566 10.6888C13.6564 10.2875 14.2232 9.98349 14.857 9.77676C15.4908 9.57003 16.1734 9.46667 16.9047 9.46667C17.7457 9.46667 18.4466 9.57611 19.0072 9.795C19.5679 10.0139 20.0433 10.2875 20.4333 10.6158L19.5192 12.3669C19.1048 12.0508 18.6903 11.8319 18.2759 11.7103C17.8737 11.5887 17.4227 11.5279 16.923 11.5279C16.0332 11.5279 15.2897 11.7468 14.6924 12.1845C14.0952 12.6223 13.7112 13.2486 13.5406 14.0633H18.861L18.2211 15.3949H13.3943C13.3943 15.5044 13.3882 15.6138 13.376 15.7232V16.3617C13.3882 16.4711 13.3943 16.5806 13.3943 16.69H17.8554L17.2155 18.0216H13.5406C13.7112 18.8242 14.0891 19.4444 14.6741 19.8821C15.2714 20.3199 16.0088 20.5388 16.8864 20.5388C17.4349 20.5388 17.9103 20.4719 18.3125 20.3381C18.7269 20.1922 19.0804 20.0098 19.3729 19.7909L20.4333 21.4508C19.9945 21.8278 19.4765 22.1136 18.8793 22.3081C18.2942 22.5027 17.6055 22.6 16.8133 22.6V22.6Z" fill="white"/>
<defs>
<linearGradient id="paint0_linear" x1="0" y1="0" x2="32" y2="32" gradientUnits="userSpaceOnUse">
<stop stop-color="#31D8A4"/>
<stop offset="1" stop-color="#31D8A4" stop-opacity="0"/>
</linearGradient>
</defs>
</svg>

<svg width="32" height="32" fill="none" xmlns="http://www.w3.org/2000/svg"><circle cx="16" cy="16" r="16" fill="#0E052F"/><circle cx="16" cy="16" r="16" fill="url(#paint0_linear)" fill-opacity=".75"/><circle cx="16" cy="16" r="13.867" fill="#fff"/><circle cx="15.967" cy="15.967" r="12.633" fill="#0E052F"/><path d="M16.813 22.6a6.397 6.397 0 01-2.03-.31 5.433 5.433 0 01-1.663-.93 5.55 5.55 0 01-1.207-1.441 6.385 6.385 0 01-.676-1.897H9.5V16.69h1.59a1.931 1.931 0 01-.018-.274v-.693a3.79 3.79 0 00.019-.328H9.5v-1.332h1.719a6.083 6.083 0 01.694-1.933 5.294 5.294 0 011.244-1.441 5.33 5.33 0 011.7-.912 6.566 6.566 0 012.048-.31c.84 0 1.542.11 2.102.328a5.04 5.04 0 011.426.82l-.914 1.752a3.855 3.855 0 00-1.243-.657 4.668 4.668 0 00-1.353-.182c-.89 0-1.633.219-2.23.656-.598.438-.982 1.065-1.152 1.88h5.32l-.64 1.33h-4.827c0 .11-.006.22-.018.33v.638c.012.11.018.219.018.328h4.461l-.64 1.332h-3.674c.17.802.548 1.422 1.133 1.86.597.438 1.335.657 2.212.657.549 0 1.024-.067 1.427-.2a3.944 3.944 0 001.06-.548l1.06 1.66a4.485 4.485 0 01-1.554.857c-.585.195-1.274.292-2.066.292z" fill="#fff"/><defs><linearGradient id="paint0_linear" x1="0" y1="0" x2="32" y2="32" gradientUnits="userSpaceOnUse"><stop stop-color="#31D8A4"/><stop offset="1" stop-color="#31D8A4" stop-opacity="0"/></linearGradient></defs></svg>
